X:144101
T:Scotland the Brave (+Brass)
H: 
B: Canadian Cadet Program / Scot's Guard (I.8) / College of Piping Tutor
C:Traditional (Unknown, 1911)
O:Kevin Fraser
Z:Kevin Fraser
Q:1/4=90
K:HP
M:4/4
L:1/8
R:March
U: R = ///
U: r = //
U: V = !accent!
V:M gstem=up stem=down name="Melody"
V:0 gstem=up stem=down name="Simplified Melody" sname="simplified"
V:H gstem=up stem=down name="Harmony"
V:C gstem=up stem=down name="C-Harmony"
V:S gstem=up stem=down dyn=up stafflines=1 clef=perc middle=G name="Snare" sname="Snare"" sname="Snare"
V:B gstem=up stem=down clef=none dyn=up name="Bass"
V:T gstem=up stem=down clef=none dyn=up name="Tenor"
V:BB gstem=up stem=down name="Brass Bass" sname="Brass Bass" transpose=-1  octave=-1 clef=bass
V:BC gstem=up stem=down name="Brass Chord" sname="ABCD-D" transpose=-1
V:BD gstem=up stem=down name="Brass Chord 2" sname="ABCD-B" transpose=-1
I:MIDI=program 110
%%MIDI gracedivider 40
V:M gstem=up stem=down name="Melody"
%%MIDI program 109 #bagpipes
%%MIDI vol 100
%%score M BC BD BB 
% %score 0 M 
% %score 0 
T: Scotland the Brave Low Hand Version (Scotland) 
V:M
z2 z2 | z2 z2 | z2 z2   | z3
 e  |{g}A2  {GdGe}A>B {gcd}c{e}A {gcd}ce    | {ag}a2 {g}a2 {GdG}ae {gcd}c{e}A | {Gdc}d2 {g}f>d {gcd}ce {gce}c{e}A | {gBd}B2 {gef}e2 {A}e>f  {gef}e/d/{gcd}c/B/ | $
V:M
    |{g}A2  {GdGe}A>B {gcd}c{e}A {gcd}ce    | {ag}a2 {g}a2 {GdG}ae {gcd}c{e}A | {Gdc}d2 {g}f>d {gcd}ce {gce}c{e}A | {gBd}B2 {g}A>B  {G}A2   {gcd}ce || $
V:M
    |{ag}a2 {g}a2     {GdG}ae    {gcd}c{e}A | {ag}a2 {g}a2 {GdG}ae {gcd}ce    | {Gdc}d2 {g}f>d {gcd}c2 {gef}e>c   |  {gBd}B2 {gef}e2 {A}e>f  {gef}e/d/{gcd}c/B/ | $
V:M
    |{g}A2  {GdGe}A>B {gcd}c{e}A {gcd}ce    | {ag}a2 {g}a2 {GdG}ae {gcd}c{e}A | {Gdc}d2 {g}f>d {gcd}ce {gce}c{e}A | {gBd}B2 {g}A>B  {G}A3    || $
V:BB
K:Fmix
z2 z2 | z2 z2 | z2 z2   | z3
% %MIDI program 1
%%MIDI program 66
L:1/4
   z/ | B B  B2 | B B  B2 | e e d d | f f f2 | $
V:BB
      | B B  B2 | B B  B2 | e e d d | f f B2 || $
V:BB
      | B B  B2 | B B  B2 | e e d d | f f f2 | $
V:BB
      | B B  B2 | B B  B2 | e e d d | f f B2 || $
V:BC
% %MIDI program 2
%%MIDI program 59
z2 z2 | z2 z2 | z2 z2   | z3
L:1/8
K:Fmix
   z | B2 B>c BB BB | d2 d>d dB BB | G2 B>G BB BB| A2 A>A A4 | $
V:BC
     | B2 B>c BB BB | d2 d>d dB BB | G2 B>G BB BB| A4 B4 || $
V:BC
     | d2 d>d d4 | d2 d>d d4 | G2 B>B BB BB| A2 A>A A4 | $ 
V:BC
     | B2 B>c BB BB | d2 d>d dB BB | G2 B>G BB BB| A4 B4 || $
V:BD
%%MIDI program 3
z2 z2 | z2 z2 | z2 z2   | z3
L:1/8
K:Fmix
z  |B2 B>c BB Bd | f2 f>f fd BB | B2 e>e Bd BB | c2 B>c c4 | $
V:BD
%%MIDI program 58
   |B2 B>c BB Bd | f2 f>f fd BB | B2 e>e Bd BB | c2 B>c d4 || $
V:BD
   | f2 f>f f4  | f2 f>f fd BB | B2 e>e Bd BB | c2 B>c d4 | $
V:BD
   |B2 B>c BB Bd | f2 f>f fd BB | B2 e>e Bd BB | c2 B>c d4 || $
V:S
z2 z2 | z2 z2 | z2 z2   | z3
L:1/8
A 	| "^9"(rc>!>!c)!>!A>"^5"(rc c)>A"^9"(rc>!>!c) !>!A>"^5"(rcc)>A  {A}c2"^13"r(c2 | (3:2A)cA{A}c>A  (3:2AcA{A}c>A   c>!>!Ac/A/c/A/ !>!c2c>A  | 
V:S
	  "^9"(rc>!>!c)!>!A>"^5"(rc c)>A"^9"(rc>!>!c) !>!A>"^5"(rcc)>A  {A}c2"^13"r(c2 | (3:2A)cA{A}c2   A{A}>cA>A       {A}c2(rc2 A2)c>A | 
V:S
	  "^9"(rc>!>!c)!>!A>"^5"(rc c)>A"^9"(rc>!>!c) !>!A>"^5"(rcc)>A  {A}c2"^13"r(c2 | (3:2A)cA{A}c>A  (3:2AcA{A}c>A   c>!>!Ac/A/c/A/ !>!c2c>A  | 
V:S
	  "^9"(rc>!>!c)!>!A>"^5"(rc c)>A"^9"(rc>!>!c) !>!A>"^5"(rcc)>A  {A}c2"^13"r(c2 | A4) (rc4 c4) z2c>A || 
V:S
	  "^5"(!>!rc!>!"^9"A !>!"^5"A>"^9" c) >A"^9"(rc>!>!c) !>!A>"^5"(rcc)>A  {A}c2"^13"r(c2 | (3:2A)cA{A}c>A  (3:2AcA{A}c>A   c>!>!Ac/A/c/A/ !>!c2c>A  | 
V:S
	  "^9"(rc>!>!c)!>!A>"^5"(rc c)>A"^9"(rc>!>!c) !>!A>"^5"(rcc)>A  {A}c2"^13"r(c2 | (3:2A)cA{A}c2   A{A}>cA>A       {A}c2(rc2 A2)c>A | 
V:S
	  "^9"(rc>!>!c)!>!A>"^5"(rc c)>A"^9"(rc>!>!c) !>!A>"^5"(rcc)>A  {A}c2"^13"r(c2 | (3:2A)cA{A}c>A  (3:2AcA{A}c>A   c>!>!Ac/A/c/A/ !>!c2c>A  | 
V:S
	  "^9"(rc>!>!c)!>!A>"^5"(rc c)>A"^9"(rc>!>!c) !>!A>"^5"(rcc)>A  {A}c2"^13"r(c2 | A4) (rc4 c4) z4 || 
V:0
 e  |{g}A2  {g}A>B {g}c{e}A {g}ce    | {ag}a2 {g}a2 {g}ae {g}c{e}A | {g}d2 {g}f>d {g}ce {g}c{e}A | {g}B2 {gef}e2 {A}e>f  {g}e/d/{g}c/B/ | $
V:0
    |{g}A2  {g}A>B {g}c{e}A {g}ce    | {ag}a2 {g}a2 {g}ae {g}c{e}A | {g}d2 {g}f>d {g}ce {g}c{e}A | {g}B2 {g}A>B  {G}A2   {g}ce || $
V:0
    |{ag}a2 {g}a2     {g}ae    {g}c{e}A | {ag}a2 {g}a2 {g}ae {g}ce    | {g}d2 {g}f>d {g}c2 {g}e>c   |  {g}B2 {g}e2 {A}e>f  {g}e/d/{g}c/B/ | $
V:0
    |{g}A2  {g}A>B {g}c{e}A {g}ce    | {ag}a2 {g}a2 {g}ae {g}c{e}A | {g}d2 {g}f>d {g}ce {g}c{e}A | {g}B2 {g}A>B  {G}A3    || $
V:B
%%MIDI channel 10
%%MIDI program 0
%%MIDI drummap F 36 %bass drum 1
%%MIDI drummap c 38 %acoustic snare
%%MIDI drummap ^D 44 %pedal hi-hat
%%MIDI drummap ^f 51 %ride cymbal 1
%%MIDI drummap ^g 42 %closed hi hat
%%MIDI drummap ^a 49 %crash cymbal 1
%%MIDI drummap ^b 52 %chinese cymbal
%%MIDI drummap e 50 %high tom
%%MIDI drummap d 48 %hi mid tom
%%MIDI drummap B 45 %low tom
%%MIDI drummap A 41 %low floor tom
%%MIDI Channel 10
[L:1/16]A4 A4 | A4 z4 | A4 A4 | A4 z2 
[|:z2 | A4 A4 | A4 A4 | A4 A4 | A4 A4 | 
A4 A4 | A4 A4 | A4 A4 | A2 A2 A2 :| 
[|:z2 |A4 A4 | A4 A4 | A4 A4 | A4 A4 | 
A4 A4 | A4 A4 | A4 A4 | A2 A2 A2 :| 
[|:z2 |A4 A4 | A4 A4 | A4 A4 | A4 A4 | 
A4 A4 | A4 A4 | A4 A4 | A2 A2 A2 :| 
[|:z2 |A4 A4 | A4 A4 | A4 A4 | A4 A4 | 
A4 A4 | A4 A4 | A4 A4 | A2 A2 A2 :| 


